images/icon/twit-footer.svg

<svg width="25" height="24" viewBox="0 0 25 24" fill="none" xmlns="http://www.w3.org/2000/svg">
<path d="M12.98 0C6.35247 0 0.97998 5.37249 0.97998 12C0.97998 18.6275 6.35247 24 12.98 24C19.6075 24 24.9799 18.6275 24.9799 12C24.9799 5.37249 19.6075 0 12.98 0ZM17.8612 9.82998C17.8662 9.93248 17.8675 10.035 17.8675 10.135C17.8675 13.26 15.4912 16.8612 11.1437 16.8612C9.85908 16.8634 8.60118 16.4944 7.52122 15.7987C7.70497 15.8212 7.89372 15.83 8.08497 15.83C9.19247 15.83 10.2112 15.4537 11.02 14.8187C10.5271 14.809 10.0496 14.6458 9.65386 14.3519C9.25816 14.0579 8.96403 13.6478 8.81247 13.1787C9.16641 13.246 9.53103 13.2319 9.87872 13.1375C9.34378 13.0293 8.86272 12.7394 8.5171 12.3171C8.17149 11.8947 7.9826 11.3657 7.98247 10.82V10.7912C8.30122 10.9675 8.66622 11.075 9.05372 11.0875C8.55222 10.7536 8.1972 10.2408 8.06128 9.6539C7.92535 9.06698 8.01878 8.4503 8.32247 7.92999C8.91616 8.65999 9.65654 9.25717 10.4957 9.68287C11.3348 10.1086 12.254 10.3533 13.1937 10.4012C13.0742 9.89412 13.1257 9.36174 13.34 8.88687C13.5543 8.41199 13.9195 8.02122 14.3788 7.77532C14.8381 7.52941 15.3658 7.44214 15.8798 7.52708C16.3938 7.61201 16.8654 7.86439 17.2212 8.24499C17.7502 8.14033 18.2574 7.94631 18.7212 7.67124C18.5449 8.2189 18.1758 8.68396 17.6825 8.97999C18.151 8.92355 18.6085 8.79758 19.04 8.60624C18.7231 9.0811 18.3239 9.49553 17.8612 9.82998Z" fill="#9FB7D3"/>
</svg>

<svg width="25" height="24" fill="none" xmlns="http://www.w3.org/2000/svg"><path d="M12.98 0c-6.628 0-12 5.372-12 12s5.372 12 12 12 12-5.372 12-12-5.372-12-12-12zm4.881 9.83c.005.102.006.205.006.305 0 3.125-2.376 6.726-6.723 6.726A6.668 6.668 0 017.52 15.8c.184.022.373.031.564.031a4.734 4.734 0 002.935-1.011 2.37 2.37 0 01-2.208-1.64c.354.067.719.053 1.067-.042a2.366 2.366 0 01-1.897-2.317v-.029a2.37 2.37 0 001.072.296 2.363 2.363 0 01-.732-3.157 6.72 6.72 0 004.872 2.471 2.364 2.364 0 014.027-2.156 4.746 4.746 0 001.5-.574 2.375 2.375 0 01-1.038 1.309 4.75 4.75 0 001.357-.374c-.317.475-.716.89-1.179 1.224z" fill="#9FB7D3"/></svg>
